X:85
T:Reel 85
M:4/4
K:Dmaj
L:1/8
FG|A>D (3DDD DGFD|GFEF G2AG| (3FED AD BDAF|GFEF D2AB|A>D (3DDD A>D (3DDD |A>D (3DDD F2Ad|B>E (3EEE B>E (3EDE |cAdc d2|A2|dedc d2cA|BABc dcBA|F>A (3AAA d2cd| (3ecd ec dcBA|F>A (3AAA d2cd| (3Bcd AF GFED|EFGA BcdB|AFEF D2|
